X: 38736
T: Stride, The
R: reel
M: 4/4
K: Aminor
|:ABcB AEEE|FEEE GEEE|ABcB AEEE|GEdE cEBE|
ABcB AEEE|FEEE GEEE|1 cGBG AGED|EFGB ABcB:|2 cGBG AGED|EFGB AGAB|
|:AcBc ABcd|eAAA EAaA|eBBB EBBB|cB^GB GBEB|
(3cdc Bc ABcd|eAAA EBfe|eBBB EBBB|cB^GB ABcB:|

